src/images/svg/calendar.svg

<svg width="20" height="20" viewBox="0 0 20 20" fill="none" xmlns="http://www.w3.org/2000/svg">
<path d="M15 9H13V11H15V9Z" fill="#9B9FAA"/>
<path d="M11 9H9V11H11V9Z" fill="#9B9FAA"/>
<path d="M7.00002 9H5V11H7.00002V9Z" fill="#9B9FAA"/>
<path d="M17 2.00001H16V0H14V2.00001H6.00001V0H4V2.00001H3.00001C1.89001 2.00001 1.01003 2.90001 1.01003 4.00003L1 18C1 19.1 1.89001 20 3.00001 20H17C18.1 20 19 19.1 19 18V3.99998C19 2.90001 18.1 2.00001 17 2.00001ZM17 18H3.00001V6.99998H17V18Z" fill="#9B9FAA"/>
</svg>

<svg width="20" height="20" fill="none" xmlns="http://www.w3.org/2000/svg">
  <path d="M15 9h-2v2h2V9ZM11 9H9v2h2V9ZM7 9H5v2h2V9Z" fill="#9B9FAA"/>
  <path d="M17 2h-1V0h-2v2H6V0H4v2H3c-1.11 0-1.99.9-1.99 2L1 18a2 2 0 0 0 2 2h14c1.1 0 2-.9 2-2V4c0-1.1-.9-2-2-2Zm0 16H3V7h14v11Z" fill="#9B9FAA"/>
</svg>
